Obsidian-SemiLight/actions/24s/layer-visible-off.svg

<svg viewBox="0 0 24 24" xmlns="http://www.w3.org/2000/svg"><path d="m5 4-3 4h12l4-4zm14.292969 0-15.292969 15.292969.7070312.707031 15.2929688-15.2929688zm-14.292969 6-3 4h6l4-4zm11 0-4 4h7l3-4zm-6 6-4 4h13l3-4z" fill="#4d4d4d"/></svg>

<svg xmlns="http://www.w3.org/2000/svg" viewBox="0 0 24 24">
  <defs id="defs3051">
    <style type="text/css" id="current-color-scheme">
      .ColorScheme-Text {
        color:#4d4d4d;
      }
      </style>
  </defs>
 <path style="fill:currentColor;fill-opacity:1;stroke:none" 
     d="M 5 4 L 2 8 L 14 8 L 18 4 L 5 4 z M 19.292969 4 L 4 19.292969 L 4.7070312 20 L 20 4.7070312 L 19.292969 4 z M 5 10 L 2 14 L 8 14 L 12 10 L 5 10 z M 16 10 L 12 14 L 19 14 L 22 10 L 16 10 z M 10 16 L 6 20 L 19 20 L 22 16 L 10 16 z "
     class="ColorScheme-Text"
     />
</svg>
